dist/img/mir.svg

<svg width="71" height="20" viewBox="0 0 71 20" fill="none" xmlns="http://www.w3.org/2000/svg">
<path d="M39.4638 2.11796L34.9866 11.8231H34.5308V0H28.1501V19.9732H33.5389C34.9598 19.9732 36.2467 19.1421 36.8365 17.8552L41.3137 8.15013H41.7694V19.9732H48.1233V0H42.7346C41.3405 0 40.0536 0.831099 39.4638 2.11796ZM15.6032 2.62735L12.9491 11.8231H12.4933L9.83914 2.62735C9.38338 1.07239 7.96247 0 6.35389 0H0V19.9732H6.35389V8.17694H6.80965L10.4558 19.9732H14.9866L18.6327 8.15013H19.0885V19.9732H25.4424V0H19.0885C17.4799 0 16.0322 1.07239 15.6032 2.62735ZM50.8847 9.08847V20H57.2386V13.6193H64.0751C67.0509 13.6193 69.5442 11.7158 70.4826 9.08847H50.8847Z" fill="#319B42"/>
<path d="M64.0477 0H49.9727C50.8306 4.63807 54.9056 8.17694 59.785 8.17694H70.7233C70.8038 7.74799 70.8574 7.29222 70.8574 6.80965C70.8574 3.0563 67.8011 0 64.0477 0Z" fill="url(#paint0_linear)"/>
<defs>
<linearGradient id="paint0_linear" x1="49.9638" y1="4.08794" x2="70.8582" y2="4.08794" gradientUnits="userSpaceOnUse">
<stop stop-color="#00A3E1"/>
<stop offset="0.304" stop-color="#009ADD"/>
<stop offset="0.799" stop-color="#0082D4"/>
<stop offset="1" stop-color="#0076CF"/>
</linearGradient>
</defs>
</svg>

<svg width="71" height="20" fill="none" xmlns="http://www.w3.org/2000/svg"><path d="M39.464 2.118l-4.477 9.705h-.456V0h-6.38v19.973h5.388a3.63 3.63 0 003.297-2.118l4.478-9.705h.455v11.823h6.354V0h-5.388a3.62 3.62 0 00-3.271 2.118zm-23.86.51l-2.655 9.195h-.456L9.84 2.627A3.643 3.643 0 006.354 0H0v19.973h6.354V8.177h.456l3.646 11.796h4.53L18.634 8.15h.456v11.823h6.353V0h-6.354c-1.608 0-3.056 1.072-3.485 2.627zm35.28 6.46V20h6.355v-6.38h6.836c2.976 0 5.47-1.904 6.408-4.532H50.885z" fill="#319B42"/><path d="M64.048 0H49.973c.858 4.638 4.933 8.177 9.812 8.177h10.938c.08-.429.134-.885.134-1.367A6.82 6.82 0 0064.047 0z" fill="url(#paint0_linear)"/><defs><linearGradient id="paint0_linear" x1="49.964" y1="4.088" x2="70.858" y2="4.088" gradientUnits="userSpaceOnUse"><stop stop-color="#00A3E1"/><stop offset=".304" stop-color="#009ADD"/><stop offset=".799" stop-color="#0082D4"/><stop offset="1" stop-color="#0076CF"/></linearGradient></defs></svg>
